austria/municipalities/21010.svg

<svg xmlns="http://www.w3.org/2000/svg" width="850" height="850" style="shape-rendering:geometricPrecision;text-rendering:geometricPrecision;image-rendering:optimizeQuality;fill-rule:evenodd;clip-rule:evenodd"><path style="opacity:1" fill="#c8c7c7" d="M837.5 17.5v-6h-826v4c-.951-1.419-1.284-3.085-1-5h828c.302 2.56-.032 4.893-1 7z"/><path style="opacity:1" fill="#262323" d="M837.5 17.5a103840.317 103840.317 0 0 1-31.5 454c-9.65 136.46-71.817 240.96-186.5 313.5-103.31 58.664-211.31 68.997-324 31-42.963-15.63-81.63-38.13-116-67.5-.473-1.406-1.473-2.073-3-2-2-1.333-3.667-3-5-5-.473-1.406-1.473-2.073-3-2-31.015-27.661-56.348-59.661-76-96 .215-1.679-.452-2.679-2-3-23.556-43.836-38.389-90.503-44.5-140a46084.756 46084.756 0 0 1-34.5-485v-4h826v6z"/><path style="opacity:1" fill="#126237" d="M30.5 29.5c262.833-1 525.833-1.333 789-1 .295 2.235-.039 4.235-1 6v-5h-788z"/><path style="opacity:1" fill="#00a54f" d="M30.5 29.5h788v5c-9.59 135.987-19.09 271.987-28.5 408-1.1 66.731-16.766 129.731-47 189-52.173 91.548-129.34 151.048-231.5 178.5-118.753 26.258-225.42 1.591-320-74C115.232 669.64 72.065 585.806 62 484.5a364944.371 364944.371 0 0 0-31.5-455z"/><path style="opacity:1" fill="#262323" d="M306.5 193.5a25.14 25.14 0 0 0-4.5 4c-.711 1.867-.211 3.367 1.5 4.5a10737.222 10737.222 0 0 1 95 79.5 148.454 148.454 0 0 0-14 8.5c-1.789.52-3.456.187-5-1l-89-75c-3.005.495-5.005 2.328-6 5.5a26.584 26.584 0 0 0-8 9 53.864 53.864 0 0 1-6 6.5 16113.871 16113.871 0 0 1 92.5 77.5c-1.367 6.1-3.367 12.1-6 18a5336.098 5336.098 0 0 1-94.5-79.5c-4.046-1.525-6.713-.025-8 4.5a2094.164 2094.164 0 0 0-61 71.5c-2 .667-4 .667-6 0-35.771-33.759-64.604-72.592-86.5-116.5-23.216-49.066-30.55-100.399-22-154 1.319-1.987 3.152-3.154 5.5-3.5 57.427-17.633 114.427-16.3 171 4 39.591 15.04 76.425 34.874 110.5 59.5.667 1.667.667 3.333 0 5a5832.344 5832.344 0 0 0-59.5 72zM595.5 255.5a57.09 57.09 0 0 1-5.5-7l-98 82a1806.878 1806.878 0 0 1-6-18 5371.44 5371.44 0 0 0 92.5-77.5 53.864 53.864 0 0 1-6-6.5 25.913 25.913 0 0 0-8-9c-.974-3.148-2.974-4.981-6-5.5l-89 75c-1.544 1.187-3.211 1.52-5 1a148.454 148.454 0 0 0-14-8.5 10491.27 10491.27 0 0 1 94-78.5c1.399-1.062 2.399-2.395 3-4a49.745 49.745 0 0 0-5-6.5 5095.604 5095.604 0 0 0-55.5-66c-1.959-2.277-3.459-4.777-4.5-7.5-.061-1.711.606-3.044 2-4 33.611-23.477 69.611-42.81 108-58 57.663-20.895 115.663-21.895 174-3a11.529 11.529 0 0 1 4.5 3.5c7.512 51.759.512 101.425-21 149-22.52 45.202-52.02 85.369-88.5 120.5-2 .667-4 .667-6 0a6428.764 6428.764 0 0 0-60-71.5z"/><path style="opacity:1" fill="#fbfbfb" d="M146.5 45.5c57.653-1.253 111.653 12.247 162 40.5a718.963 718.963 0 0 1 53 33 88847.839 88847.839 0 0 0-171 203.5c-34.871-32.698-63.038-70.364-84.5-113-22.754-47.683-30.42-97.683-23-150 20.672-7.302 41.838-11.969 63.5-14zM673.5 45.5a285.894 285.894 0 0 1 64 5.5 329.239 329.239 0 0 0 29 7.5c8.198 62.178-3.635 120.178-35.5 174-20.213 33.061-44.38 63.061-72.5 90l-170-203c41.714-31.521 88.048-54.021 139-67.5 15.302-3.455 30.635-5.622 46-6.5z"/><path style="opacity:1" fill="#2b2728" d="M142.5 64.5c45.326-2.28 88.66 5.887 130 24.5 20.383 8.934 39.55 19.768 57.5 32.5.667 2 .667 4 0 6l-133 159c-2.094 2.603-4.594 4.603-7.5 6-2.197-.348-4.03-1.348-5.5-3-30.104-31.847-53.437-68.181-70-109-12.529-33.565-17.196-68.231-14-104 .833-2.167 2.333-3.667 4.5-4.5 12.618-3.488 25.285-5.988 38-7.5zM664.5 64.5c27.076-1.659 53.743.841 80 7.5a11.529 11.529 0 0 1 4.5 3.5c4.384 50.522-5.949 97.856-31 142a389.752 389.752 0 0 1-52 71c-1.907 3.51-4.74 4.676-8.5 3.5A48846.98 48846.98 0 0 1 522 131.5c-1.866-2.019-3.033-4.352-3.5-7-.11-1.874.556-3.374 2-4.5 43.707-29.843 91.707-48.343 144-55.5z"/><path style="opacity:1" fill="#fefefe" d="M141.5 69.5c45.433-2.813 88.766 5.353 130 24.5 19.17 8.41 37.17 18.576 54 30.5a15870.63 15870.63 0 0 1-136 162c-39.45-39.21-66.283-85.877-80.5-140a272.583 272.583 0 0 1-4-69 238.282 238.282 0 0 1 36.5-8zM665.5 69.5c26.13-1.874 51.797.626 77 7.5 1.243 1.87 1.91 4.036 2 6.5 2.282 46.54-7.885 90.207-30.5 131a412.298 412.298 0 0 1-54 73 31627.963 31627.963 0 0 1-136.5-163c42.924-29.752 90.258-48.085 142-55z"/><path style="opacity:1" fill="#f7f9f8" d="M542.5 192.5a49.745 49.745 0 0 1 5 6.5c-.601 1.605-1.601 2.938-3 4a10491.27 10491.27 0 0 0-94 78.5c4.833 2.582 9.5 5.415 14 8.5 1.789.52 3.456.187 5-1l89-75c3.026.519 5.026 2.352 6 5.5a3430.757 3430.757 0 0 1-92 77.5 95.108 95.108 0 0 1 8 8.5 2550.936 2550.936 0 0 0 92-77 53.864 53.864 0 0 0 6 6.5 5371.44 5371.44 0 0 1-92.5 77.5 1806.878 1806.878 0 0 0 6 18l98-82a57.09 57.09 0 0 0 5.5 7c-33.981 28.31-67.981 56.644-102 85-.418 23.495-9.418 42.828-27 58-1 44.662-1.333 89.328-1 134h-8c.333-42.672 0-85.339-1-128-.607.124-.94.457-1 1a55.894 55.894 0 0 1-16 5v123h-9v-121h-12v121h-9v-123c-5.693-.453-11.026-2.119-16-5-1 42.661-1.333 85.328-1 128h-8c.332-44.836-.001-89.503-1-134-18.698-15.067-28.031-34.734-28-59a8719.17 8719.17 0 0 1-101-85c1.287-4.525 3.954-6.025 8-4.5a5336.098 5336.098 0 0 0 94.5 79.5c2.633-5.9 4.633-11.9 6-18a16113.871 16113.871 0 0 0-92.5-77.5 53.864 53.864 0 0 0 6-6.5 3786.524 3786.524 0 0 0 92 77 63.532 63.532 0 0 1 6.5-7c.749-1.135.583-2.135-.5-3a4971.14 4971.14 0 0 1-90-76c.995-3.172 2.995-5.005 6-5.5l89 75c1.544 1.187 3.211 1.52 5 1 4.5-3.085 9.167-5.918 14-8.5a10737.222 10737.222 0 0 0-95-79.5c-1.711-1.133-2.211-2.633-1.5-4.5a25.14 25.14 0 0 1 4.5-4 11859.389 11859.389 0 0 1 101 84.5 169.142 169.142 0 0 1 30.5.5c2.909-.231 5.409-1.397 7.5-3.5a82870.171 82870.171 0 0 0 97-82.5z"/><path style="opacity:1" fill="#0da753" d="M284.5 219.5a4971.14 4971.14 0 0 0 90 76c1.083.865 1.249 1.865.5 3a63.532 63.532 0 0 0-6.5 7 3786.524 3786.524 0 0 1-92-77 26.584 26.584 0 0 1 8-9zM564.5 219.5a25.913 25.913 0 0 1 8 9 2550.936 2550.936 0 0 1-92 77 95.108 95.108 0 0 0-8-8.5 3430.757 3430.757 0 0 0 92-77.5z"/><path style="opacity:1" fill="#242021" d="M414.5 285.5c36.16-1.975 58.993 14.359 68.5 49 3.614 30.346-8.219 52.179-35.5 65.5-34.196 10.812-60.029.645-77.5-30.5-11.065-30.135-3.898-54.968 21.5-74.5 7.324-4.339 14.99-7.506 23-9.5z"/><path style="opacity:1" fill="#f8faf9" d="M416.5 311.5c28.894-1.274 42.394 12.393 40.5 41-6.862 20.685-21.029 28.851-42.5 24.5-21.368-10.091-27.868-26.257-19.5-48.5 5.339-8.193 12.506-13.86 21.5-17z"/><path style="opacity:1" fill="#08a752" d="M419.5 319.5c20.497-.337 30.33 9.663 29.5 30-6.159 18.064-18.326 23.898-36.5 17.5-12.925-9.2-16.092-21.033-9.5-35.5 4.256-5.763 9.756-9.763 16.5-12z"/><path style="opacity:1" fill="#242122" d="M418.5 533.5h21v-123a55.894 55.894 0 0 0 16-5 4095.618 4095.618 0 0 1 1 128h9c31.668-.167 63.335 0 95 .5-.444 51.971-11.611 101.804-33.5 149.5-22.675 47.833-56.842 84.833-102.5 111-41.059-23.56-72.892-56.227-95.5-98-25.106-50.759-38.773-104.426-41-161 .708-.881 1.542-1.547 2.5-2h102c-.333-42.672 0-85.339 1-128 4.974 2.881 10.307 4.547 16 5v123h9z"/><path style="opacity:1" fill="#c7c6c6" d="M455.5 405.5c.06-.543.393-.876 1-1 1 42.661 1.333 85.328 1 128h8v1h-9c.332-42.837-.001-85.503-1-128z"/><path style="opacity:1" fill="#03a650" d="M430.5 533.5h-12v-121h12v121z"/><path style="opacity:1" fill="#40a067" d="M383.5 399.5a4488.948 4488.948 0 0 1 1 134h-94a2163.924 2163.924 0 0 1 93-1v-133z"/><path style="opacity:1" fill="#5a5758" d="M557.5 541.5v-3h-265v4c-.951-1.419-1.284-3.085-1-5h267c.268 1.599-.066 2.932-1 4z"/><path style="opacity:1" fill="#fcfcfc" d="M557.5 541.5c-3.678 53.051-17.178 103.384-40.5 151-22.14 40.639-52.973 72.973-92.5 97-50.987-31.503-86.82-75.503-107.5-132-13.097-37.236-21.264-75.57-24.5-115v-4h265v3z"/><path style="opacity:1" fill="#2b2728" d="M316.5 556.5c72.001-.167 144.001 0 216 .5a6.978 6.978 0 0 1 3.5 2.5c-4.808 54.76-22.141 105.093-52 151-15.874 21.541-34.707 40.041-56.5 55.5-1.667.667-3.333.667-5 0-39.239-27.587-67.739-63.754-85.5-108.5-12.146-30.751-19.979-62.585-23.5-95.5.363-2.192 1.363-4.026 3-5.5z"/><path style="opacity:1" fill="#908e8f" d="M530.5 565.5v-3h-211v5c-.961-1.765-1.295-3.765-1-6h213c.268 1.599-.066 2.932-1 4z"/><path style="opacity:1" fill="#fefefe" d="M530.5 565.5c-5.306 51.577-22.14 98.91-50.5 142-15.395 21.229-33.895 39.229-55.5 54-36.564-25.438-63.397-58.772-80.5-100-12.227-30.24-20.394-61.573-24.5-94v-5h211v3z"/><path style="opacity:1" fill="#898787" d="M90.5 640.5c1.548.321 2.215 1.321 2 3-.901-.79-1.568-1.79-2-3z"/><path style="opacity:1" fill="#908e8e" d="M168.5 739.5c1.527-.073 2.527.594 3 2-1.527.073-2.527-.594-3-2z"/><path style="opacity:1" fill="#929091" d="M176.5 746.5c1.527-.073 2.527.594 3 2-1.527.073-2.527-.594-3-2z"/></svg>

<?xml version="1.0" encoding="UTF-8"?>
<!DOCTYPE svg PUBLIC "-//W3C//DTD SVG 1.1//EN" "http://www.w3.org/Graphics/SVG/1.1/DTD/svg11.dtd">
<svg xmlns="http://www.w3.org/2000/svg" version="1.1" width="850px" height="850px" style="shape-rendering:geometricPrecision; text-rendering:geometricPrecision; image-rendering:optimizeQuality; fill-rule:evenodd; clip-rule:evenodd" xmlns:xlink="http://www.w3.org/1999/xlink">
<g><path style="opacity:1" fill="#c8c7c7" d="M 837.5,17.5 C 837.5,15.5 837.5,13.5 837.5,11.5C 562.167,11.5 286.833,11.5 11.5,11.5C 11.5,12.8333 11.5,14.1667 11.5,15.5C 10.5489,14.0813 10.2155,12.4147 10.5,10.5C 286.5,10.5 562.5,10.5 838.5,10.5C 838.802,13.0593 838.468,15.3926 837.5,17.5 Z"/></g>
<g><path style="opacity:1" fill="#262323" d="M 837.5,17.5 C 827.332,168.851 816.832,320.184 806,471.5C 796.35,607.96 734.183,712.46 619.5,785C 516.19,843.664 408.19,853.997 295.5,816C 252.537,800.37 213.87,777.87 179.5,748.5C 179.027,747.094 178.027,746.427 176.5,746.5C 174.5,745.167 172.833,743.5 171.5,741.5C 171.027,740.094 170.027,739.427 168.5,739.5C 137.485,711.839 112.152,679.839 92.5,643.5C 92.7148,641.821 92.0481,640.821 90.5,640.5C 66.9443,596.664 52.111,549.997 46,500.5C 33.6471,338.893 22.1471,177.227 11.5,15.5C 11.5,14.1667 11.5,12.8333 11.5,11.5C 286.833,11.5 562.167,11.5 837.5,11.5C 837.5,13.5 837.5,15.5 837.5,17.5 Z"/></g>
<g><path style="opacity:1" fill="#126237" d="M 30.5,29.5 C 293.333,28.5002 556.333,28.1669 819.5,28.5C 819.795,30.7354 819.461,32.7354 818.5,34.5C 818.5,32.8333 818.5,31.1667 818.5,29.5C 555.833,29.5 293.167,29.5 30.5,29.5 Z"/></g>
<g><path style="opacity:1" fill="#00a54f" d="M 30.5,29.5 C 293.167,29.5 555.833,29.5 818.5,29.5C 818.5,31.1667 818.5,32.8333 818.5,34.5C 808.91,170.487 799.41,306.487 790,442.5C 788.9,509.231 773.234,572.231 743,631.5C 690.827,723.048 613.66,782.548 511.5,810C 392.747,836.258 286.08,811.591 191.5,736C 115.232,669.64 72.0651,585.806 62,484.5C 51.5945,332.823 41.0945,181.156 30.5,29.5 Z"/></g>
<g><path style="opacity:1" fill="#262323" d="M 306.5,193.5 C 304.871,194.625 303.371,195.959 302,197.5C 301.289,199.367 301.789,200.867 303.5,202C 335.313,228.312 366.98,254.812 398.5,281.5C 393.667,284.082 389,286.915 384.5,290C 382.711,290.52 381.044,290.187 379.5,289C 349.833,264 320.167,239 290.5,214C 287.495,214.495 285.495,216.328 284.5,219.5C 281.139,221.895 278.472,224.895 276.5,228.5C 274.734,230.771 272.734,232.937 270.5,235C 301.426,260.714 332.259,286.548 363,312.5C 361.633,318.6 359.633,324.6 357,330.5C 325.207,304.376 293.707,277.876 262.5,251C 258.454,249.475 255.787,250.975 254.5,255.5C 233.657,278.848 213.323,302.681 193.5,327C 191.5,327.667 189.5,327.667 187.5,327C 151.729,293.241 122.896,254.408 101,210.5C 77.7835,161.434 70.4501,110.101 79,56.5C 80.3189,54.5125 82.1523,53.3459 84.5,53C 141.927,35.3674 198.927,36.7007 255.5,57C 295.091,72.0403 331.925,91.8737 366,116.5C 366.667,118.167 366.667,119.833 366,121.5C 345.932,145.393 326.098,169.393 306.5,193.5 Z"/></g>
<g><path style="opacity:1" fill="#262323" d="M 595.5,255.5 C 593.5,253.329 591.666,250.996 590,248.5C 557.333,275.833 524.667,303.167 492,330.5C 489.932,324.401 487.932,318.401 486,312.5C 517.111,287.024 547.944,261.19 578.5,235C 576.266,232.937 574.266,230.771 572.5,228.5C 570.547,224.88 567.881,221.88 564.5,219.5C 563.526,216.352 561.526,214.519 558.5,214C 528.833,239 499.167,264 469.5,289C 467.956,290.187 466.289,290.52 464.5,290C 460,286.915 455.333,284.082 450.5,281.5C 481.687,255.145 513.021,228.978 544.5,203C 545.899,201.938 546.899,200.605 547.5,199C 545.984,196.659 544.317,194.492 542.5,192.5C 524.211,170.373 505.711,148.373 487,126.5C 485.041,124.223 483.541,121.723 482.5,119C 482.439,117.289 483.106,115.956 484.5,115C 518.111,91.523 554.111,72.1897 592.5,57C 650.163,36.1048 708.163,35.1048 766.5,54C 768.286,54.7845 769.786,55.9512 771,57.5C 778.512,109.259 771.512,158.925 750,206.5C 727.48,251.702 697.98,291.869 661.5,327C 659.5,327.667 657.5,327.667 655.5,327C 635.635,302.976 615.635,279.143 595.5,255.5 Z"/></g>
<g><path style="opacity:1" fill="#fbfbfb" d="M 146.5,45.5 C 204.153,44.2466 258.153,57.7466 308.5,86C 326.671,96.2487 344.337,107.249 361.5,119C 304.371,186.781 247.371,254.614 190.5,322.5C 155.629,289.802 127.462,252.136 106,209.5C 83.2463,161.817 75.5796,111.817 83,59.5C 103.672,52.198 124.838,47.5313 146.5,45.5 Z"/></g>
<g><path style="opacity:1" fill="#fbfbfb" d="M 673.5,45.5 C 695.05,44.93 716.384,46.7633 737.5,51C 747.087,53.9487 756.753,56.4487 766.5,58.5C 774.698,120.678 762.865,178.678 731,232.5C 710.787,265.561 686.62,295.561 658.5,322.5C 601.833,254.833 545.167,187.167 488.5,119.5C 530.214,87.9789 576.548,65.4789 627.5,52C 642.802,48.545 658.135,46.3783 673.5,45.5 Z"/></g>
<g><path style="opacity:1" fill="#2b2728" d="M 142.5,64.5 C 187.826,62.2206 231.16,70.3872 272.5,89C 292.883,97.9345 312.05,108.768 330,121.5C 330.667,123.5 330.667,125.5 330,127.5C 285.667,180.5 241.333,233.5 197,286.5C 194.906,289.103 192.406,291.103 189.5,292.5C 187.303,292.152 185.47,291.152 184,289.5C 153.896,257.653 130.563,221.319 114,180.5C 101.471,146.935 96.804,112.269 100,76.5C 100.833,74.3333 102.333,72.8333 104.5,72C 117.118,68.5124 129.785,66.0124 142.5,64.5 Z"/></g>
<g><path style="opacity:1" fill="#2b2728" d="M 664.5,64.5 C 691.576,62.8411 718.243,65.3411 744.5,72C 746.286,72.7845 747.786,73.9512 749,75.5C 753.384,126.022 743.051,173.356 718,217.5C 703.355,243.12 686.021,266.786 666,288.5C 664.093,292.01 661.26,293.176 657.5,292C 612.215,238.593 567.048,185.093 522,131.5C 520.134,129.481 518.967,127.148 518.5,124.5C 518.39,122.626 519.056,121.126 520.5,120C 564.207,90.1567 612.207,71.6567 664.5,64.5 Z"/></g>
<g><path style="opacity:1" fill="#fefefe" d="M 141.5,69.5 C 186.933,66.6868 230.266,74.8535 271.5,94C 290.67,102.41 308.67,112.576 325.5,124.5C 280.513,178.818 235.18,232.818 189.5,286.5C 150.05,247.29 123.217,200.623 109,146.5C 104.74,123.691 103.407,100.691 105,77.5C 117.054,73.8568 129.22,71.1901 141.5,69.5 Z"/></g>
<g><path style="opacity:1" fill="#fefefe" d="M 665.5,69.5 C 691.63,67.6256 717.297,70.1256 742.5,77C 743.743,78.8697 744.41,81.0363 744.5,83.5C 746.782,130.04 736.615,173.707 714,214.5C 698.7,240.805 680.7,265.138 660,287.5C 614.312,233.313 568.812,178.98 523.5,124.5C 566.424,94.7481 613.758,76.4148 665.5,69.5 Z"/></g>
<g><path style="opacity:1" fill="#f7f9f8" d="M 542.5,192.5 C 544.317,194.492 545.984,196.659 547.5,199C 546.899,200.605 545.899,201.938 544.5,203C 513.021,228.978 481.687,255.145 450.5,281.5C 455.333,284.082 460,286.915 464.5,290C 466.289,290.52 467.956,290.187 469.5,289C 499.167,264 528.833,239 558.5,214C 561.526,214.519 563.526,216.352 564.5,219.5C 534.317,245.845 503.651,271.678 472.5,297C 475.378,299.709 478.044,302.542 480.5,305.5C 511.796,280.533 542.462,254.867 572.5,228.5C 574.266,230.771 576.266,232.937 578.5,235C 547.944,261.19 517.111,287.024 486,312.5C 487.932,318.401 489.932,324.401 492,330.5C 524.667,303.167 557.333,275.833 590,248.5C 591.666,250.996 593.5,253.329 595.5,255.5C 561.519,283.81 527.519,312.144 493.5,340.5C 493.082,363.995 484.082,383.328 466.5,398.5C 465.5,443.162 465.167,487.828 465.5,532.5C 462.833,532.5 460.167,532.5 457.5,532.5C 457.833,489.828 457.5,447.161 456.5,404.5C 455.893,404.624 455.56,404.957 455.5,405.5C 450.43,407.967 445.097,409.634 439.5,410.5C 439.5,451.5 439.5,492.5 439.5,533.5C 436.5,533.5 433.5,533.5 430.5,533.5C 430.5,493.167 430.5,452.833 430.5,412.5C 426.5,412.5 422.5,412.5 418.5,412.5C 418.5,452.833 418.5,493.167 418.5,533.5C 415.5,533.5 412.5,533.5 409.5,533.5C 409.5,492.5 409.5,451.5 409.5,410.5C 403.807,410.047 398.474,408.381 393.5,405.5C 392.5,448.161 392.167,490.828 392.5,533.5C 389.833,533.5 387.167,533.5 384.5,533.5C 384.832,488.664 384.499,443.997 383.5,399.5C 364.802,384.433 355.469,364.766 355.5,340.5C 321.577,312.386 287.91,284.053 254.5,255.5C 255.787,250.975 258.454,249.475 262.5,251C 293.707,277.876 325.207,304.376 357,330.5C 359.633,324.6 361.633,318.6 363,312.5C 332.259,286.548 301.426,260.714 270.5,235C 272.734,232.937 274.734,230.771 276.5,228.5C 306.726,254.624 337.393,280.291 368.5,305.5C 370.455,303.042 372.622,300.709 375,298.5C 375.749,297.365 375.583,296.365 374.5,295.5C 344.162,270.49 314.162,245.157 284.5,219.5C 285.495,216.328 287.495,214.495 290.5,214C 320.167,239 349.833,264 379.5,289C 381.044,290.187 382.711,290.52 384.5,290C 389,286.915 393.667,284.082 398.5,281.5C 366.98,254.812 335.313,228.312 303.5,202C 301.789,200.867 301.289,199.367 302,197.5C 303.371,195.959 304.871,194.625 306.5,193.5C 340.294,221.455 373.96,249.622 407.5,278C 417.659,277.248 427.826,277.414 438,278.5C 440.909,278.269 443.409,277.103 445.5,275C 477.905,247.482 510.238,219.982 542.5,192.5 Z"/></g>
<g><path style="opacity:1" fill="#0da753" d="M 284.5,219.5 C 314.162,245.157 344.162,270.49 374.5,295.5C 375.583,296.365 375.749,297.365 375,298.5C 372.622,300.709 370.455,303.042 368.5,305.5C 337.393,280.291 306.726,254.624 276.5,228.5C 278.472,224.895 281.139,221.895 284.5,219.5 Z"/></g>
<g><path style="opacity:1" fill="#0da753" d="M 564.5,219.5 C 567.881,221.88 570.547,224.88 572.5,228.5C 542.462,254.867 511.796,280.533 480.5,305.5C 478.044,302.542 475.378,299.709 472.5,297C 503.651,271.678 534.317,245.845 564.5,219.5 Z"/></g>
<g><path style="opacity:1" fill="#242021" d="M 414.5,285.5 C 450.66,283.525 473.493,299.859 483,334.5C 486.614,364.846 474.781,386.679 447.5,400C 413.304,410.812 387.471,400.645 370,369.5C 358.935,339.365 366.102,314.532 391.5,295C 398.824,290.661 406.49,287.494 414.5,285.5 Z"/></g>
<g><path style="opacity:1" fill="#f8faf9" d="M 416.5,311.5 C 445.394,310.226 458.894,323.893 457,352.5C 450.138,373.185 435.971,381.351 414.5,377C 393.132,366.909 386.632,350.743 395,328.5C 400.339,320.307 407.506,314.64 416.5,311.5 Z"/></g>
<g><path style="opacity:1" fill="#08a752" d="M 419.5,319.5 C 439.997,319.163 449.83,329.163 449,349.5C 442.841,367.564 430.674,373.398 412.5,367C 399.575,357.8 396.408,345.967 403,331.5C 407.256,325.737 412.756,321.737 419.5,319.5 Z"/></g>
<g><path style="opacity:1" fill="#242122" d="M 418.5,533.5 C 422.5,533.5 426.5,533.5 430.5,533.5C 433.5,533.5 436.5,533.5 439.5,533.5C 439.5,492.5 439.5,451.5 439.5,410.5C 445.097,409.634 450.43,407.967 455.5,405.5C 456.499,447.997 456.832,490.663 456.5,533.5C 459.5,533.5 462.5,533.5 465.5,533.5C 497.168,533.333 528.835,533.5 560.5,534C 560.056,585.971 548.889,635.804 527,683.5C 504.325,731.333 470.158,768.333 424.5,794.5C 383.441,770.94 351.608,738.273 329,696.5C 303.894,645.741 290.227,592.074 288,535.5C 288.708,534.619 289.542,533.953 290.5,533.5C 321.833,533.5 353.167,533.5 384.5,533.5C 387.167,533.5 389.833,533.5 392.5,533.5C 392.167,490.828 392.5,448.161 393.5,405.5C 398.474,408.381 403.807,410.047 409.5,410.5C 409.5,451.5 409.5,492.5 409.5,533.5C 412.5,533.5 415.5,533.5 418.5,533.5 Z"/></g>
<g><path style="opacity:1" fill="#c7c6c6" d="M 455.5,405.5 C 455.56,404.957 455.893,404.624 456.5,404.5C 457.5,447.161 457.833,489.828 457.5,532.5C 460.167,532.5 462.833,532.5 465.5,532.5C 465.5,532.833 465.5,533.167 465.5,533.5C 462.5,533.5 459.5,533.5 456.5,533.5C 456.832,490.663 456.499,447.997 455.5,405.5 Z"/></g>
<g><path style="opacity:1" fill="#03a650" d="M 430.5,533.5 C 426.5,533.5 422.5,533.5 418.5,533.5C 418.5,493.167 418.5,452.833 418.5,412.5C 422.5,412.5 426.5,412.5 430.5,412.5C 430.5,452.833 430.5,493.167 430.5,533.5 Z"/></g>
<g><path style="opacity:1" fill="#40a067" d="M 383.5,399.5 C 384.499,443.997 384.832,488.664 384.5,533.5C 353.167,533.5 321.833,533.5 290.5,533.5C 321.329,532.502 352.329,532.169 383.5,532.5C 383.5,488.167 383.5,443.833 383.5,399.5 Z"/></g>
<g><path style="opacity:1" fill="#5a5758" d="M 557.5,541.5 C 557.5,540.5 557.5,539.5 557.5,538.5C 469.167,538.5 380.833,538.5 292.5,538.5C 292.5,539.833 292.5,541.167 292.5,542.5C 291.549,541.081 291.216,539.415 291.5,537.5C 380.5,537.5 469.5,537.5 558.5,537.5C 558.768,539.099 558.434,540.432 557.5,541.5 Z"/></g>
<g><path style="opacity:1" fill="#fcfcfc" d="M 557.5,541.5 C 553.822,594.551 540.322,644.884 517,692.5C 494.86,733.139 464.027,765.473 424.5,789.5C 373.513,757.997 337.68,713.997 317,657.5C 303.903,620.264 295.736,581.93 292.5,542.5C 292.5,541.167 292.5,539.833 292.5,538.5C 380.833,538.5 469.167,538.5 557.5,538.5C 557.5,539.5 557.5,540.5 557.5,541.5 Z"/></g>
<g><path style="opacity:1" fill="#2b2728" d="M 316.5,556.5 C 388.501,556.333 460.501,556.5 532.5,557C 533.931,557.465 535.097,558.299 536,559.5C 531.192,614.26 513.859,664.593 484,710.5C 468.126,732.041 449.293,750.541 427.5,766C 425.833,766.667 424.167,766.667 422.5,766C 383.261,738.413 354.761,702.246 337,657.5C 324.854,626.749 317.021,594.915 313.5,562C 313.863,559.808 314.863,557.974 316.5,556.5 Z"/></g>
<g><path style="opacity:1" fill="#908e8f" d="M 530.5,565.5 C 530.5,564.5 530.5,563.5 530.5,562.5C 460.167,562.5 389.833,562.5 319.5,562.5C 319.5,564.167 319.5,565.833 319.5,567.5C 318.539,565.735 318.205,563.735 318.5,561.5C 389.5,561.5 460.5,561.5 531.5,561.5C 531.768,563.099 531.434,564.432 530.5,565.5 Z"/></g>
<g><path style="opacity:1" fill="#fefefe" d="M 530.5,565.5 C 525.194,617.077 508.36,664.41 480,707.5C 464.605,728.729 446.105,746.729 424.5,761.5C 387.936,736.062 361.103,702.728 344,661.5C 331.773,631.26 323.606,599.927 319.5,567.5C 319.5,565.833 319.5,564.167 319.5,562.5C 389.833,562.5 460.167,562.5 530.5,562.5C 530.5,563.5 530.5,564.5 530.5,565.5 Z"/></g>
<g><path style="opacity:1" fill="#898787" d="M 90.5,640.5 C 92.0481,640.821 92.7148,641.821 92.5,643.5C 91.5987,642.71 90.9321,641.71 90.5,640.5 Z"/></g>
<g><path style="opacity:1" fill="#908e8e" d="M 168.5,739.5 C 170.027,739.427 171.027,740.094 171.5,741.5C 169.973,741.573 168.973,740.906 168.5,739.5 Z"/></g>
<g><path style="opacity:1" fill="#929091" d="M 176.5,746.5 C 178.027,746.427 179.027,747.094 179.5,748.5C 177.973,748.573 176.973,747.906 176.5,746.5 Z"/></g>
</svg>
